static/assets/images/tokens/jitosol.svg

<svg width="256" height="256" viewBox="0 0 256 256" fill="none" xmlns="http://www.w3.org/2000/svg">
<path d="M128 256C198.692 256 256 198.692 256 128C256 57.3075 198.692 0 128 0C57.3075 0 0 57.3075 0 128C0 198.692 57.3075 256 128 256Z" fill="url(#paint0_radial_9890_1680)"/>
<path d="M84.9584 154.087C85.7368 153.309 86.8071 152.855 87.9423 152.855H190.885C192.766 152.855 193.707 155.124 192.377 156.452L172.042 176.769C171.263 177.546 170.193 178 169.058 178H66.1147C64.2336 178 63.293 175.732 64.6228 174.403L84.9584 154.087Z" fill="white"/>
<path d="M84.9584 78.2313C85.7692 77.4536 86.8395 77 87.9423 77H190.885C192.766 77 193.707 79.2682 192.377 80.5967L172.042 100.913C171.263 101.691 170.193 102.145 169.058 102.145H66.1147C64.2336 102.145 63.293 99.8765 64.6228 98.548L84.9584 78.2313Z" fill="white"/>
<path d="M172.042 115.916C171.263 115.138 170.193 114.685 169.058 114.685H66.1147C64.2336 114.685 63.293 116.953 64.6228 118.281L84.9584 138.598C85.7368 139.376 86.8071 139.829 87.9423 139.829H190.885C192.766 139.829 193.707 137.561 192.377 136.233L172.042 115.916Z" fill="white"/>
<path fill-rule="evenodd" clip-rule="evenodd" d="M236 127.5C236 186.871 187.871 235 128.5 235C69.1294 235 21 186.871 21 127.5C21 68.1294 69.1294 20 128.5 20C187.871 20 236 68.1294 236 127.5ZM128.5 225C182.348 225 226 181.348 226 127.5C226 73.6522 182.348 30 128.5 30C74.6522 30 31 73.6522 31 127.5C31 181.348 74.6522 225 128.5 225Z" fill="white"/>
<defs>
<radialGradient id="paint0_radial_9890_1680" cx="0" cy="0" r="1" gradientUnits="userSpaceOnUse" gradientTransform="translate(56 43.5) rotate(51.4136) scale(243.709)">
<stop stop-color="#8AE29A"/>
<stop offset="1" stop-color="#309475"/>
</radialGradient>
</defs>
</svg>

<svg xmlns="http://www.w3.org/2000/svg" fill="none" viewBox="0 0 256 256"><path fill="url(#paint0_radial_9890_1680)" d="M128 256c70.692 0 128-57.308 128-128S198.692 0 128 0 0 57.308 0 128s57.308 128 128 128"/><path fill="#fff" d="M84.958 154.087a4.22 4.22 0 0 1 2.984-1.232h102.943c1.881 0 2.822 2.269 1.492 3.597l-20.335 20.317a4.23 4.23 0 0 1-2.984 1.231H66.115c-1.881 0-2.822-2.268-1.492-3.597zm0-75.856C85.77 77.454 86.84 77 87.942 77h102.943c1.881 0 2.822 2.268 1.492 3.597l-20.335 20.316a4.22 4.22 0 0 1-2.984 1.232H66.115c-1.881 0-2.822-2.269-1.492-3.597zm87.084 37.685a4.22 4.22 0 0 0-2.984-1.231H66.115c-1.881 0-2.822 2.268-1.492 3.596l20.335 20.317a4.22 4.22 0 0 0 2.984 1.231h102.943c1.881 0 2.822-2.268 1.492-3.596z"/><path fill="#fff" fill-rule="evenodd" d="M236 127.5c0 59.371-48.129 107.5-107.5 107.5C69.13 235 21 186.871 21 127.5 21 68.13 69.13 20 128.5 20 187.871 20 236 68.13 236 127.5M128.5 225c53.848 0 97.5-43.652 97.5-97.5S182.348 30 128.5 30 31 73.652 31 127.5 74.652 225 128.5 225" clip-rule="evenodd"/><defs><radialGradient id="paint0_radial_9890_1680" cx="0" cy="0" r="1" gradientTransform="rotate(51.414 -17.18 79.912)scale(243.709)" gradientUnits="userSpaceOnUse"><stop stop-color="#8AE29A"/><stop offset="1" stop-color="#309475"/></radialGradient></defs></svg>
